X: 1
T: The High Drive
R: reel
M: 4/4
L: 1/8
K: Dmaj
d3 e fedA | (3BBB gB BAGB | GA(3AAA fedf | eA(3AAA afge |
d3 e fedA | (3BBB gB BAGB | GA(3AAA fedf | edce d4 :|
|: a3 g ad(3ddd | AB(3BBB gBdB | GA(3AAA fedf | eA(3AAA efge |
a3 g ad(3ddd | AB(3BBB gBdB | GA(3AAA fedf | edce d4 :|


Tune 4428	Setting 29027

